X:1360
L:1/4
M:3/4
K:D
 D | D F A | A G F | E D D | D2 D | E E F | G F E | D A A | A2 A/A/ | A F A | d d d | B A F | 
 E2 D | D F A | B A F | E F E | D ||

